X: 10222
M: 3/8
L: 1/16
K: F
c2c2 (e/d/c/d/) | (c4 f2) | (e2efga) | b2g2 cg |\
.b2.b2 (b/a/g/a/) | g4 f2 | fedcde | f4 "^(8va . . ."AB |\
c2c2 e/d/c/d/ | c4 f2 | e2efga | b2g2 cg |
b2b2 b/a/g/a/ | g4 f2 | fedcde "^. . .8va)"| f4 "loco."c2 |\
g2g2b2 & ececec | a4 gf | e2e2f2 & e2 BcAc | {G}g2e2c2 |\
g2g2b2 & ececec | a4 gf |  e2e2f2 & e2 BcAc | g4 AB |
c2d2 (e/d/c/d/) | (c4 f2) | e2(efga) | (b2g2) cg |\
b2b2 (b/a/g/a/) | g4 f2 | fedcde | f4 c2 |\
g2g2b2 & x2ecec | (a4 gf) | e2e2f2 & e2 BcAc | ({G}g2e2c2) |
g2g2b2 & ececec | (a4 gf) | e2e2f2 & e2 BcAc | g4 "^(8va . . ."AB |\
c2c2 e/d/c/d/ | c4 f2 | e2e(fga) | (b2g2) (cg) |\
b2b2 (b/a/g/a/) | g4 f2 | fedcde | "^. . . 8va)"f4 |]
"^loco."cf |\
(agfedc) | (dcBAGF) | (=EFGABG) | (FABcde) |\
{g}fefgaf | efga=bc' | c2c2 d>e | c4 cf |\
(agfedc) | (dcBAGF) | =EFGABG | FABcde |
fefgaf | efga=bc' | c2c2 d>e | c4 |]\
c2 |\
cGEC e2 | fcAF C2 | g2b2a2 & ec e2f2 | g2c'2c2 |\
c2c2 (e/d/c/d/) |\
(c4 f2) | e2efga | (b2g2) cg |\
b2b2 b/a/g/a/ | g4 f2 | fedcde | f4 |]\
c2 |\
fcAF C2 | g2b2a2 & ec e2f2 | g4 "^(8va . . ."AB |\
c2c2 e/d/c/d/ | c4 f2 | e2efga | b2g2 cg |\
b2b2 b/a/g/a/ | g4 f2 | fedcde | "^. . . 8va)"f4 |]\
"^loco."CA, |\
eg[c'2c2] bg | fa[c'2c2] ba | gbgece | f2c2 af |\
eg[c'2c2] bg | fa[c'2c2] ba | gbgece | f4z2 |]



